storage/app/icons/phosphoricons/regular/columns-plus-right.svg

<svg xmlns="http://www.w3.org/2000/svg" fill="currentColor" viewBox="0 0 256 256"><path d="M80 32H56a16 16 0 0 0-16 16v160a16 16 0 0 0 16 16h24a16 16 0 0 0 16-16V48a16 16 0 0 0-16-16m0 176H56V48h24Zm72-176h-24a16 16 0 0 0-16 16v160a16 16 0 0 0 16 16h24a16 16 0 0 0 16-16V48a16 16 0 0 0-16-16m0 176h-24V48h24Zm96-80a8 8 0 0 1-8 8h-16v16a8 8 0 0 1-16 0v-16h-16a8 8 0 0 1 0-16h16v-16a8 8 0 0 1 16 0v16h16a8 8 0 0 1 8 8"/></svg>

<svg xmlns="http://www.w3.org/2000/svg" viewBox="0 0 256 256" fill="currentColor"><path d="M80,32H56A16,16,0,0,0,40,48V208a16,16,0,0,0,16,16H80a16,16,0,0,0,16-16V48A16,16,0,0,0,80,32Zm0,176H56V48H80ZM152,32H128a16,16,0,0,0-16,16V208a16,16,0,0,0,16,16h24a16,16,0,0,0,16-16V48A16,16,0,0,0,152,32Zm0,176H128V48h24Zm96-80a8,8,0,0,1-8,8H224v16a8,8,0,0,1-16,0V136H192a8,8,0,0,1,0-16h16V104a8,8,0,0,1,16,0v16h16A8,8,0,0,1,248,128Z"/></svg>
